X: 20138
T: Jionetto Loula
R: waltz
M: 3/4
K: Amajor
|E2A2B2|c4B2|c4d2|c6|B2A2B2|c2B2A2|c4d2|c6|
c2d2c2|B4c2|e2d2c2|B6|c4B2|A4B2|c2d2B2|c6|
E2A2c2|e2d2c2|B2c2B2|A6|
|:"E"E2A2B2|"A"c2B2d2|"F#m"cB A2B2|"E"c2B4|"E"E2A2B2|"A"c2B2d2|"E"cB A2G2|"A"A6:|
|:"A"e2c2e2|"E"d2B2d2|"F#m"cB A2B2|"E"c2B4|"A"e2c2e2|"D"d2B2d2|"E"cBA2G2|"A"A6:|

